Images/instagram.svg

<?xml version="1.0" encoding="UTF-8"?><!DOCTYPE svg PUBLIC "-//W3C//DTD SVG 1.1//EN" "http://www.w3.org/Graphics/SVG/1.1/DTD/svg11.dtd"><svg xmlns="http://www.w3.org/2000/svg" xmlns:xlink="http://www.w3.org/1999/xlink" version="1.1" id="Layer_1" x="0px" y="0px" width="127.999px" height="128px" viewBox="0 0 127.999 128" xml:space="preserve"><style type="text/css"><![CDATA[
	.st0{fill:#231F20;}
]]></style><path class="st0" d="M64.053 75.321c6.188 0 11.207-4.861 11.207-10.855 0-6-5.02-10.857-11.207-10.857-6.186 0-11.203 4.857-11.203 10.857 0 5.993 5.017 10.855 11.203 10.855z" fill="#231F20"/><path class="st0" d="M76.748 53.924h6.305a2.52 2.52 0 0 0 2.512-2.514v-6.009a2.522 2.522 0 0 0-2.512-2.516h-6.305a2.52 2.52 0 0 0-2.512 2.516v6.009a2.518 2.518 0 0 0 2.512 2.514z" fill="#231F20"/><path class="st0" d="M81.398 65.072c0 9.276-7.768 16.802-17.346 16.802-9.576 0-17.342-7.525-17.342-16.802 0-1.667.254-3.271.719-4.79h-5.123V83.85c0 1.221.996 2.213 2.217 2.213h38.848a2.218 2.218 0 0 0 2.219-2.213V60.282h-4.91c.466 1.519.718 3.123.718 4.79z" fill="#231F20"/><path class="st0" d="M63.998 7.989c-30.883 0-56.008 25.126-56.008 56.01 0 30.885 25.125 56.012 56.008 56.012 30.885 0 56.012-25.127 56.012-56.012 0-30.884-25.127-56.01-56.012-56.01zm27.898 77.33c0 3.938-3.223 7.158-7.16 7.158H43.268c-3.938 0-7.162-3.22-7.162-7.158V43.852c0-3.94 3.225-7.162 7.162-7.162h41.469c3.938 0 7.16 3.222 7.16 7.162v41.467z" fill="#231F20"/><metadata><rdf:RDF xmlns:rdf="http://www.w3.org/1999/02/22-rdf-syntax-ns#" xmlns:rdfs="http://www.w3.org/2000/01/rdf-schema#" xmlns:dc="http://purl.org/dc/elements/1.1/"><rdf:Description about="https://iconscout.com/legal#licenses" dc:title="social,networks,networks-" dc:description="social,networks,networks-" dc:publisher="Iconscout" dc:date="2018-01-30" dc:format="image/svg+xml" dc:language="en"><dc:creator><rdf:Bag><rdf:li>Roundicons.com</rdf:li></rdf:Bag></dc:creator></rdf:Description></rdf:RDF></metadata></svg>

<?xml version="1.0" encoding="UTF-8" standalone="no"?>
<!DOCTYPE svg PUBLIC "-//W3C//DTD SVG 1.1//EN" "http://www.w3.org/Graphics/SVG/1.1/DTD/svg11.dtd">
<svg width="100%" height="100%" viewBox="0 0 128 128" version="1.1" xmlns="http://www.w3.org/2000/svg" xmlns:xlink="http://www.w3.org/1999/xlink" xml:space="preserve" xmlns:serif="http://www.serif.com/" style="fill-rule:evenodd;clip-rule:evenodd;stroke-linejoin:round;stroke-miterlimit:2;">
    <path d="M64.053,75.321C70.241,75.321 75.26,70.46 75.26,64.466C75.26,58.466 70.24,53.609 64.053,53.609C57.867,53.609 52.85,58.466 52.85,64.466C52.85,70.459 57.867,75.321 64.053,75.321Z" style="fill:rgb(35,31,32);fill-rule:nonzero;"/>
    <path d="M76.748,53.924L83.053,53.924C84.43,53.92 85.562,52.787 85.565,51.41L85.565,45.401C85.562,44.024 84.43,42.89 83.053,42.885L76.748,42.885C75.37,42.889 74.238,44.023 74.236,45.401L74.236,51.41C74.238,52.788 75.37,53.921 76.748,53.924Z" style="fill:rgb(35,31,32);fill-rule:nonzero;"/>
    <path d="M81.398,65.072C81.398,74.348 73.63,81.874 64.052,81.874C54.476,81.874 46.71,74.349 46.71,65.072C46.71,63.405 46.964,61.801 47.429,60.282L42.306,60.282L42.306,83.85C42.306,85.071 43.302,86.063 44.523,86.063L83.371,86.063C84.586,86.064 85.587,85.065 85.59,83.85L85.59,60.282L80.68,60.282C81.146,61.801 81.398,63.405 81.398,65.072Z" style="fill:rgb(35,31,32);fill-rule:nonzero;"/>
    <path d="M63.998,7.989C33.115,7.989 7.99,33.115 7.99,63.999C7.99,94.884 33.115,120.011 63.998,120.011C94.883,120.011 120.01,94.884 120.01,63.999C120.01,33.115 94.883,7.989 63.998,7.989ZM91.896,85.319C91.896,89.257 88.673,92.477 84.736,92.477L43.268,92.477C39.33,92.477 36.106,89.257 36.106,85.319L36.106,43.852C36.106,39.912 39.331,36.69 43.268,36.69L84.737,36.69C88.675,36.69 91.897,39.912 91.897,43.852L91.897,85.319L91.896,85.319Z" style="fill:rgb(35,31,32);fill-rule:nonzero;"/>
</svg>
